public/icons/insta-20.svg

<svg width="12" height="13" viewBox="0 0 12 13" fill="none" xmlns="http://www.w3.org/2000/svg">
<g clip-path="url(#clip0_573_640)">
<path d="M6 1.41439C7.60302 1.41439 7.79119 1.42153 8.42478 1.45012C9.01073 1.47632 9.32752 1.57398 9.53951 1.65734C9.82057 1.76691 10.0207 1.89553 10.2303 2.10514C10.4399 2.31475 10.5709 2.51483 10.6781 2.79589C10.759 3.00788 10.8591 3.32467 10.8853 3.91062C10.9139 4.5442 10.921 4.73237 10.921 6.33539C10.921 7.93841 10.9139 8.12658 10.8853 8.76016C10.8591 9.34611 10.7614 9.6629 10.6781 9.87489C10.5685 10.156 10.4399 10.356 10.2303 10.5656C10.0207 10.7752 9.82057 10.9063 9.53951 11.0134C9.32752 11.0944 9.01073 11.1945 8.42478 11.2207C7.79119 11.2492 7.60302 11.2564 6 11.2564C4.39699 11.2564 4.20882 11.2492 3.57523 11.2207C2.98928 11.1945 2.67249 11.0968 2.4605 11.0134C2.17944 10.9039 1.97936 10.7752 1.76975 10.5656C1.56014 10.356 1.42914 10.156 1.32195 9.87489C1.24097 9.6629 1.14093 9.34611 1.11473 8.76016C1.08615 8.12658 1.079 7.93841 1.079 6.33539C1.079 4.73237 1.08615 4.5442 1.11473 3.91062C1.14093 3.32467 1.23859 3.00788 1.32195 2.79589C1.43152 2.51483 1.56014 2.31475 1.76975 2.10514C1.97936 1.89553 2.17944 1.76453 2.4605 1.65734C2.67249 1.57636 2.98928 1.47632 3.57523 1.45012C4.20882 1.41915 4.39937 1.41439 6 1.41439ZM6 0.333008C4.37079 0.333008 4.16594 0.340154 3.52521 0.368736C2.88686 0.397319 2.45097 0.499741 2.06987 0.647418C1.67448 0.79986 1.34101 1.00708 1.00754 1.34055C0.674077 1.67402 0.469234 2.00986 0.314411 2.40288C0.166733 2.78398 0.0643113 3.21987 0.0357285 3.8606C0.0071457 4.49895 0 4.70379 0 6.33301C0 7.96222 0.0071457 8.16707 0.0357285 8.8078C0.0643113 9.44615 0.166733 9.88203 0.314411 10.2655C0.466852 10.6609 0.674077 10.9944 1.00754 11.3278C1.34101 11.6613 1.67686 11.8662 2.06987 12.021C2.45097 12.1687 2.88686 12.2711 3.52759 12.2997C4.16832 12.3282 4.37079 12.3354 6.00239 12.3354C7.63399 12.3354 7.83645 12.3282 8.47718 12.2997C9.11553 12.2711 9.55142 12.1687 9.9349 12.021C10.3303 11.8685 10.6638 11.6613 10.9972 11.3278C11.3307 10.9944 11.5355 10.6585 11.6904 10.2655C11.838 9.88442 11.9405 9.44853 11.969 8.8078C11.9976 8.16707 12.0048 7.96461 12.0048 6.33301C12.0048 4.70141 11.9976 4.49895 11.969 3.85822C11.9405 3.21987 11.838 2.78398 11.6904 2.40049C11.5379 2.0051 11.3307 1.67163 10.9972 1.33817C10.6638 1.0047 10.3279 0.79986 9.9349 0.645036C9.5538 0.497359 9.11791 0.394937 8.47718 0.366354C7.83407 0.340154 7.62922 0.333008 6 0.333008Z" fill="#dbd3c8"/>
<path d="M6 1.41439C7.60302 1.41439 7.79119 1.42153 8.42478 1.45012C9.01073 1.47632 9.32752 1.57398 9.53951 1.65734C9.82057 1.76691 10.0207 1.89553 10.2303 2.10514C10.4399 2.31475 10.5709 2.51483 10.6781 2.79589C10.759 3.00788 10.8591 3.32467 10.8853 3.91062C10.9139 4.5442 10.921 4.73237 10.921 6.33539C10.921 7.93841 10.9139 8.12658 10.8853 8.76016C10.8591 9.34611 10.7614 9.6629 10.6781 9.87489C10.5685 10.156 10.4399 10.356 10.2303 10.5656C10.0207 10.7752 9.82057 10.9063 9.53951 11.0134C9.32752 11.0944 9.01073 11.1945 8.42478 11.2207C7.79119 11.2492 7.60302 11.2564 6 11.2564C4.39699 11.2564 4.20882 11.2492 3.57523 11.2207C2.98928 11.1945 2.67249 11.0968 2.4605 11.0134C2.17944 10.9039 1.97936 10.7752 1.76975 10.5656C1.56014 10.356 1.42914 10.156 1.32195 9.87489C1.24097 9.6629 1.14093 9.34611 1.11473 8.76016C1.08615 8.12658 1.079 7.93841 1.079 6.33539C1.079 4.73237 1.08615 4.5442 1.11473 3.91062C1.14093 3.32467 1.23859 3.00788 1.32195 2.79589C1.43152 2.51483 1.56014 2.31475 1.76975 2.10514C1.97936 1.89553 2.17944 1.76453 2.4605 1.65734C2.67249 1.57636 2.98928 1.47632 3.57523 1.45012C4.20882 1.41915 4.39937 1.41439 6 1.41439Z" fill="#dbd3c8"/>
<path d="M5.99999 3.25293C4.29932 3.25293 2.91782 4.63205 2.91782 6.3351C2.91782 8.03816 4.29693 9.41728 5.99999 9.41728C7.70305 9.41728 9.08217 8.03816 9.08217 6.3351C9.08217 4.63205 7.70305 3.25293 5.99999 3.25293ZM5.99999 8.33352C4.89479 8.33352 3.9992 7.43792 3.9992 6.33272C3.9992 5.22752 4.89479 4.33193 5.99999 4.33193C7.10519 4.33193 8.00079 5.22752 8.00079 6.33272C8.00079 7.43792 7.10519 8.33352 5.99999 8.33352Z" fill="#282B30"/>
<path d="M9.20365 3.84882C9.60092 3.84882 9.92298 3.52677 9.92298 3.12949C9.92298 2.73221 9.60092 2.41016 9.20365 2.41016C8.80637 2.41016 8.48431 2.73221 8.48431 3.12949C8.48431 3.52677 8.80637 3.84882 9.20365 3.84882Z" fill="#282B30"/>
</g>
<defs>
<clipPath id="clip0_573_640">
<rect width="12" height="12" fill="white" transform="translate(0 0.333008)"/>
</clipPath>
</defs>
</svg>

<svg xmlns="http://www.w3.org/2000/svg" fill="none" viewBox="0 0 12 13"><g clip-path="url(#a)"><path fill="#dbd3c8" d="M6 1.414c1.603 0 1.791.008 2.425.036.586.026.903.124 1.115.207.28.11.48.239.69.448s.34.41.448.69c.081.213.181.53.207 1.116.029.633.036.821.036 2.424s-.007 1.792-.036 2.425c-.026.586-.124.903-.207 1.115-.11.281-.238.481-.448.69-.21.21-.41.341-.69.448-.212.081-.53.181-1.115.208-.634.028-.822.035-2.425.035s-1.791-.007-2.425-.035c-.586-.027-.903-.124-1.114-.208a1.9 1.9 0 0 1-.691-.447c-.21-.21-.34-.41-.448-.691-.081-.212-.181-.529-.207-1.115-.029-.633-.036-.822-.036-2.425s.007-1.79.036-2.424c.026-.586.124-.903.207-1.115.11-.281.238-.481.448-.69.21-.21.41-.341.69-.449.212-.08.53-.18 1.115-.207.634-.03.824-.036 2.425-.036M6 .333c-1.63 0-1.834.007-2.475.036-.638.028-1.074.13-1.455.278-.396.153-.729.36-1.062.694S.469 2.01.314 2.403c-.147.381-.25.817-.278 1.458C.007 4.499 0 4.704 0 6.333s.007 1.834.036 2.475c.028.638.13 1.074.278 1.457.153.396.36.73.694 1.063s.669.538 1.062.693c.381.148.817.25 1.458.279.64.028.843.035 2.474.035s1.834-.007 2.475-.035c.639-.029 1.074-.131 1.458-.279.395-.153.729-.36 1.062-.693a3 3 0 0 0 .693-1.062c.148-.382.25-.817.279-1.458.029-.64.036-.843.036-2.475s-.007-1.834-.036-2.475c-.028-.638-.131-1.074-.279-1.458a2.9 2.9 0 0 0-.693-1.062A3 3 0 0 0 9.935.645C9.554.497 9.118.395 8.477.366 7.834.34 7.63.333 6 .333"/><path fill="#dbd3c8" d="M6 1.414c1.603 0 1.791.008 2.425.036.586.026.903.124 1.115.207.28.11.48.239.69.448s.34.41.448.69c.081.213.181.53.207 1.116.029.633.036.821.036 2.424s-.007 1.792-.036 2.425c-.026.586-.124.903-.207 1.115-.11.281-.238.481-.448.69-.21.21-.41.341-.69.448-.212.081-.53.181-1.115.208-.634.028-.822.035-2.425.035s-1.791-.007-2.425-.035c-.586-.027-.903-.124-1.114-.208a1.9 1.9 0 0 1-.691-.447c-.21-.21-.34-.41-.448-.691-.081-.212-.181-.529-.207-1.115-.029-.633-.036-.822-.036-2.425s.007-1.79.036-2.424c.026-.586.124-.903.207-1.115.11-.281.238-.481.448-.69.21-.21.41-.341.69-.449.212-.08.53-.18 1.115-.207.634-.03.824-.036 2.425-.036"/><path fill="#282b30" d="M6 3.253a3.083 3.083 0 1 0 .001 6.165A3.083 3.083 0 0 0 6 3.253m0 5.08a2 2 0 1 1 0-4 2 2 0 0 1 0 4m3.204-4.484a.72.72 0 1 0 0-1.439.72.72 0 0 0 0 1.439"/></g><defs><clipPath id="a"><path fill="#fff" d="M0 .333h12v12H0z"/></clipPath></defs></svg>
